humanity-icon-theme/Humanity/apps/16/gnome-panel-force-quit.svg

<?xml version="1.0" encoding="UTF-8" standalone="no"?>
<!-- Created with Inkscape (http://www.inkscape.org/) -->

<svg
   xmlns:svg="http://www.w3.org/2000/svg"
   xmlns="http://www.w3.org/2000/svg"
   xmlns:xlink="http://www.w3.org/1999/xlink"
   version="1.0"
   width="16"
   height="16"
   id="svg2">
  <defs
     id="defs4">
    <linearGradient
       id="linearGradient6457">
      <stop
         id="stop6459"
         style="stop-color:white;stop-opacity:0.94117647"
         offset="0" />
      <stop
         id="stop6461"
         style="stop-color:white;stop-opacity:0.70588237"
         offset="1" />
    </linearGradient>
    <linearGradient
       id="linearGradient2781">
      <stop
         id="stop2783"
         style="stop-color:#505050;stop-opacity:1"
         offset="0" />
      <stop
         id="stop6301"
         style="stop-color:#6e6e6e;stop-opacity:1"
         offset="0.13216467" />
      <stop
         id="stop2785"
         style="stop-color:#8c8c8c;stop-opacity:1"
         offset="1" />
    </linearGradient>
    <linearGradient
       id="linearGradient4222">
      <stop
         id="stop4224"
         style="stop-color:white;stop-opacity:1"
         offset="0" />
      <stop
         id="stop4226"
         style="stop-color:white;stop-opacity:0"
         offset="1" />
    </linearGradient>
    <linearGradient
       x1="24"
       y1="13"
       x2="24"
       y2="40"
       id="linearGradient6379"
       xlink:href="#linearGradient6457"
       gradientUnits="userSpaceOnUse"
       gradientTransform="matrix(0.368421,0,0,0.3333334,-0.8421051,0.6666664)" />
    <linearGradient
       x1="21.866402"
       y1="8.5763302"
       x2="21.780495"
       y2="39.923653"
       id="linearGradient6385"
       xlink:href="#linearGradient2781"
       gradientUnits="userSpaceOnUse"
       gradientTransform="matrix(0.4545362,0,0,0.4590071,-3.3634134,-3.6309208)" />
    <linearGradient
       x1="15.461214"
       y1="8.2910967"
       x2="15.461214"
       y2="17.95812"
       id="linearGradient6393"
       xlink:href="#linearGradient4222"
       gradientUnits="userSpaceOnUse"
       gradientTransform="matrix(0.4193406,0,0,0.4137778,-2.4835146,-2.4306718)" />
  </defs>
  <g
     id="g5502">
    <path
       d="M 1,0.5 C 0.723,0.5 0.5,0.723 0.5,1 l 0,13 c 0,0.277 0.223,0.5 0.5,0.5 l 7.1875,0 L 6.4375,13 11.0625,9.40625 1,2.78125 4.8125,0.5 1,0.5 z M 8.21875,0.5 4.25,2.78125 14.1875,9.375 9.5,13.09375 11.125,14.5 15,14.5 c 0.277,0 0.5,-0.223 0.5,-0.5 l 0,-13 C 15.5,0.723 15.277,0.5 15,0.5 l -6.78125,0 z"
       id="rect1887"
       style="fill:url(#linearGradient6385);fill-opacity:1;stroke:#565853;stroke-width:1.00028801;stroke-linejoin:miter;stroke-miterlimit:4;stroke-opacity:1;stroke-dasharray:none" />
    <path
       d="M 1.5,1.5 1.5,2.46875 3.125,1.5 1.5,1.5 z m 5,0 L 4.25,2.78125 14.1875,9.375 9.5,13.09375 9.96875,13.5 l 4.53125,0 0,-12 -8,0 z m -5,1.625 0,10.375 5.53125,0 L 6.4375,13 11.0625,9.40625 1.5,3.125 z"
       id="rect2779"
       style="opacity:0.2;fill:none;stroke:url(#linearGradient6393);stroke-width:1.00044096;stroke-miterlimit:4;stroke-opacity:1;stroke-dasharray:none" />
    <path
       d="M 1,5 1,14 7.59375,14 6.4375,13 11.0625,9.40625 4.375,5 1,5 z M 7.59375,5 14.1875,9.375 9.5,13.09375 10.5625,14 15,14 15,5 7.59375,5 z"
       id="rect6287"
       style="fill:url(#linearGradient6379);fill-opacity:1;stroke:none" />
    <path
       d="M 14,3.2500003 C 14.000178,3.664161 13.664339,4 13.25,4 12.835658,4 12.499819,3.664161 12.5,3.2500003 12.499819,2.8358394 12.835658,2.5 13.25,2.5 c 0.414339,0 0.750178,0.3358394 0.75,0.7500003 l 0,0 z"
       id="path6293"
       style="fill:#ffc24c;fill-opacity:1;stroke:none" />
    <path
       d="M 12,3.2500003 C 12.000178,3.664161 11.664339,4 11.25,4 10.835658,4 10.499819,3.664161 10.5,3.2500003 10.499819,2.8358394 10.835658,2.5 11.25,2.5 c 0.414339,0 0.750178,0.3358394 0.75,0.7500003 l 0,0 z"
       id="path6302"
       style="fill:#ffc24c;fill-opacity:1;stroke:none" />
    <path
       d="M 10,3.2500003 C 10.000178,3.664161 9.6643391,4 9.2500001,4 8.8356581,4 8.4998191,3.664161 8.5000001,3.2500003 8.4998191,2.8358394 8.8356581,2.5 9.2500001,2.5 9.6643391,2.5 10.000178,2.8358394 10,3.2500003 l 0,0 z"
       id="path6304"
       style="fill:#ffc24c;fill-opacity:1;stroke:none" />
  </g>
</svg>

<?xml version="1.0" encoding="UTF-8" standalone="no"?>
<!-- Created with Inkscape (http://www.inkscape.org/) -->
<svg id="svg2" xmlns="http://www.w3.org/2000/svg" height="16" width="16" version="1.0" xmlns:xlink="http://www.w3.org/1999/xlink">
 <defs id="defs4">
  <linearGradient id="linearGradient6379" y2="40" gradientUnits="userSpaceOnUse" x2="24" gradientTransform="matrix(.36842 0 0 .33333 -.84211 .66667)" y1="13" x1="24">
   <stop id="stop6459" style="stop-color:#fff;stop-opacity:.94118" offset="0"/>
   <stop id="stop6461" style="stop-color:#fff;stop-opacity:.70588" offset="1"/>
  </linearGradient>
  <linearGradient id="linearGradient6385" y2="39.924" gradientUnits="userSpaceOnUse" x2="21.78" gradientTransform="matrix(.45454 0 0 .45901 -3.3634 -3.6309)" y1="8.5763" x1="21.866">
   <stop id="stop2783" style="stop-color:#505050" offset="0"/>
   <stop id="stop6301" style="stop-color:#6e6e6e" offset=".13216"/>
   <stop id="stop2785" style="stop-color:#8c8c8c" offset="1"/>
  </linearGradient>
  <linearGradient id="linearGradient6393" y2="17.958" gradientUnits="userSpaceOnUse" x2="15.461" gradientTransform="matrix(.41934 0 0 .41378 -2.4835 -2.4307)" y1="8.2911" x1="15.461">
   <stop id="stop4224" style="stop-color:#fff" offset="0"/>
   <stop id="stop4226" style="stop-color:#fff;stop-opacity:0" offset="1"/>
  </linearGradient>
 </defs>
 <g id="g5502">
  <path id="rect1887" style="stroke:#565853;stroke-width:1.0003;fill:url(#linearGradient6385)" d="m1 0.5c-0.277 0-0.5 0.223-0.5 0.5v13c0 0.277 0.223 0.5 0.5 0.5h7.1875l-1.75-1.5 4.6245-3.5938-10.062-6.625 3.8125-2.2812h-3.8125zm7.2188 0-3.9688 2.2812 9.938 6.5938-4.688 3.719 1.625 1.406h3.875c0.277 0 0.5-0.223 0.5-0.5v-13c0-0.277-0.223-0.5-0.5-0.5h-6.7812z"/>
  <path id="rect2779" style="opacity:.2;stroke:url(#linearGradient6393);stroke-width:1.0004;fill:none" d="m1.5 1.5v0.9688l1.625-0.9688h-1.625zm5 0l-2.25 1.2812 9.938 6.5938-4.688 3.719 0.4688 0.406h4.5312v-12h-8zm-5 1.625v10.375h5.5312l-0.5937-0.5 4.6245-3.5938-9.562-6.2812z"/>
  <path id="rect6287" style="fill:url(#linearGradient6379)" d="m1 5v9h6.5938l-1.1563-1 4.6245-3.5938-6.687-4.4062h-3.375zm6.5938 0 6.5942 4.375-4.688 3.719 1.062 0.906h4.438v-9h-7.4062z"/>
  <path id="path6293" style="fill:#ffc24c" d="m14 3.25c0 0.4142-0.336 0.75-0.75 0.75s-0.75-0.3358-0.75-0.75 0.336-0.75 0.75-0.75c0.41434 0 0.75018 0.33584 0.75 0.75z"/>
  <path id="path6302" style="fill:#ffc24c" d="m12 3.25c0 0.4142-0.336 0.75-0.75 0.75s-0.75-0.3358-0.75-0.75 0.336-0.75 0.75-0.75c0.41434 0 0.75018 0.33584 0.75 0.75z"/>
  <path id="path6304" style="fill:#ffc24c" d="m10 3.25c0 0.4142-0.3357 0.75-0.75 0.75s-0.7502-0.3358-0.75-0.75c-0.0002-0.4142 0.3357-0.75 0.75-0.75s0.75 0.3358 0.75 0.75z"/>
 </g>
</svg>
